X: 1
T:Adrian's Obsession  "(c) Mark Saul Book 1"
M:C
L:1/8
Q:80
C:Mark Saul
S:Reel
K:HP
e|
{g}fd{g}Bd{g}Ad{g}d{c}d|
{g}Ad{c}dB{g}AB{g}de|
{g}fA{g}Bd{g}ed{g}B{d}A|  !
{g}Be{A}ed{gef}e2{g}de|
{g}fd{g}Bd{g}Ad{g}d{c}d|
{g}Ad{c}dA{g}de{g}fg|  !
afge{g}fe{g}dB|
{g}cd{g}ef{Gdc}d3:| |:
B|  !
{g}Ad{g}d{c}d{g}Bd{g}A{d}B|
{g}Ad{g}d{c}d{g}BA{g}GA|
{g}Be{g}e{A}e{g}Be{g}G{d}B|  !
{g}AB{g}cd{g}ed{g}BA|
{g}Ad{g}d{c}d{g}Bd{g}A{d}B|
{g}Ad{g}d{c}d{g}BA{g}GA|  !
{g}Be{g}dB{g}Ad{g}fd|
{g}ed{g}ef{Gdc}d3:| |:
B|  !
{g}Af{g}efaf{g}f{e}f|
{g}df{e}fe{g}de{g}fg|
{a}fd{g}ef{a}gf{g}ed|  !
{g}Be{A}ed{gef}e2{g}dB|
{g}Af{g}efaf{g}f{e}f|
{g}df{e}fd{g}AB{g}de|  !
{g}fd{g}ec{g}dB{g}Af|
{g}ed{g}c{d}A{Gdc}d3:| |:
e|  !
{g}fa{g}a{g}afade|
{g}fa{g}a{g}agf{g}ed|
{g}eg{a}g{f}gegBg|  !
{a}ed{g}egag{a}fe|
{g}fa{g}a{g}afade|
{g}fa{g}a{g}agf{g}ed|  !
{g}Be{g}dB{g}dfaf|
{g}ed{g}c{d}A{Gdc}d3:|
